packages/foundations/assets/icons/functional/images/security/shield_check_20.svg

<svg width="20" height="20" viewBox="0 0 20 20" fill="none" xmlns="http://www.w3.org/2000/svg">
<g clip-path="url(#clip0_187_308)">
<path fill-rule="evenodd" clip-rule="evenodd" d="M10 2C10.1149 2 10.2306 2.027 10.3377 2.081L15.7403 4.87C15.898 4.949 16 5.13 16 5.33V8C16 12.498 14.0629 15.852 10.1903 17.952C10.1311 17.984 10.0651 18 10 18C9.93486 18 9.86886 17.984 9.80971 17.952C5.93714 15.852 4 12.498 4 8V5.33C4 5.13 4.102 4.949 4.25971 4.87L9.66229 2.081C9.76943 2.027 9.88514 2 10 2ZM11.6616 7.29324L9.19237 9.58612L8.33844 8.79316C7.91739 8.40218 7.23683 8.40218 6.81578 8.79316C6.39474 9.18414 6.39474 9.81611 6.81578 10.2071L8.43104 11.707C8.64103 11.902 8.9167 12 9.19237 12C9.46804 12 9.74371 11.902 9.9537 11.707L13.1842 8.70716C13.6053 8.31618 13.6053 7.68422 13.1842 7.29324C12.7632 6.90226 12.0826 6.90226 11.6616 7.29324Z" fill="#1A1C1F"/>
</g>
<defs>
<clipPath id="clip0_187_308">
<rect width="20" height="20" fill="white"/>
</clipPath>
</defs>
</svg>

<svg xmlns="http://www.w3.org/2000/svg" width="20" height="20" fill="none"><g clip-path="url(#a)"><path fill="#1A1C1F" fill-rule="evenodd" d="M10 2a.75.75 0 0 1 .338.081L15.74 4.87c.158.079.26.26.26.46V8c0 4.498-1.937 7.852-5.81 9.952a.4.4 0 0 1-.38 0C5.937 15.852 4 12.498 4 8V5.33c0-.2.102-.381.26-.46l5.402-2.789A.75.75 0 0 1 10 2m1.662 5.293-2.47 2.293-.854-.793a1.135 1.135 0 0 0-1.522 0 .95.95 0 0 0 0 1.414l1.615 1.5c.21.195.486.293.761.293.276 0 .552-.098.762-.293l3.23-3a.95.95 0 0 0 0-1.414 1.135 1.135 0 0 0-1.522 0" clip-rule="evenodd"/></g><defs><clipPath id="a"><path fill="#fff" d="M0 0h20v20H0z"/></clipPath></defs></svg>
